X: 8755
T: Cucanandy
R: slip jig
M: 9/8
K: Edorian
|:B3 B2 A G2 A|B2 d d2 c d3|B3 B2 A G2 A|B2 e e2 d e3:|
e2 f g2 f g3|B2 d d2 c d3|e2 f g2 f g2 d|B2 e e2 d e3|
e2 f g2 f g3|B2 d d2 c d3|e2 B B2 A G2 A|B2 e e2 d e3||

